X:12286
T:Old Ardendale Station Jig
R:Jig
C:Bruce Osborne  --  June 14 1991
M:6/8
L:1/8
K:A
CD|E2A cBA|E3-EAB|c2e cBA|F-F3Bc|!
d3 cde|g2a gfe|efe dcB|c3 cBA|!
E2A cBA|E3-EAB|c2e cBA|F3 -FBc|!
d3 cde|g2a gfe|dBG EFG|A4:|!
|:(3efg|a2e c2A|E2A cBA|cec AEC|A,3-A,GA|!
BcB GBG|EGB BcB|Ac(3fgfec|a3-a(3efg|!
a2e c2A|E2A cBA|cec AEC|A,3-A,GA|!
BcB GBG|EGB BcB|Ac(3fgf ec|A4:|!
